X: 305748
T: COTILLION No. 19. TREMONT SETT tune 4
C:
%R: jig
B: Elias Howe "The Musician's Companion" Part 3 1844 p.120 #4 (and p.121 #1)
S: http://imslp.org/wiki/The_Musician's_Companion_(Howe,_Elias)
Z: 2015 John Chambers <jc:trillian.mit.edu>
M: 6/8
L: 1/8
K: C
% - - - - - - - - - - - - - - - - - - - - - - - - - - - - -
g |\
g^fg e2g | =fef def | edc ABc | d2c B2g |\
g^fg e2g | =fef def | edc AdB | ccc c2 H|]
d |\
dcB dgb | d'c'b c'2c | cBA c=fa | c'ba b2g |\
g^fg ede | g^fg dBd | g^fg dec | BcA "^D.C."G2 |]
D |\
A^GA BAB | cBc d2e | fee ddc | cBB B2E |\
A^GA BAB | cBc d2e | f2e dcB | AGA "^D.C."A2 |]
% - - - - - - - - - - Dance description - - - - - - - - - -
%%begintext align
%% Grand right and left,
%% all balance to partners and turn,
%% grand chain,
%% all promenade.
%%endtext
% - - - - - - - - - - - - - - - - - - - - - - - - - - - - -
%%sep 1 1 300

% (Continued from previous page)


